X: 217
T: Crooked Road To Dublin
R: reel
M: 4/4
L: 1/8
K: Gmaj
~G3G FGAF|G2FG AdcA|GBAG FGAg|fdcA dBcA|
GBAG FGAF|GBAc BdcA|GBAG FGAg|fdcA d2 Bc||
d~g3 fgaf|d~g3 agfe|d~g3 fgag|fdcA d2Bc|
d~g3 fgaf|d~g3 afga|bgaf gbag|fdcA BGAF||

